X: 13756
T: Forget Me Not
R: reel
M: 4/4
K: Dmajor
|:d2fd BAFE|DB,~B,2 A,B,DE|FAde fded|Beed egfe|
d2fd BAFE|(3DED B,D A,B,DE|FAdf ecdB|AFGE FD D2:|
|:d2 ad bdad|gdfd ed (3Bcd|Ad{e}dc defg|afdf efga|
bf ~f2 afef|d2fd efdA|FAdf ecdnB|AFGE FD D2:|

